report_00007_2020-12-11T15:55:29.892Z/render-blocking-resources/samples/pages+cached+noexternal/raw/values.svg

<svg width="640" height="490" xmlns="http://www.w3.org/2000/svg" xmlns:xlink="http://www.w3.org/1999/xlink"><path fill="#fff" d="M0 0h640v490H0z"/><defs><path id="d" stroke-width=".222" stroke="currentColor" d="M-1-1h2v2h-2z"/><path id="b" stroke-width=".222" stroke="currentColor" d="M0-1.33l-1.33 2h2.66z"/><path id="f" stroke-width=".222" stroke="currentColor" d="M0 1.33L1.265.411.782-1.067l-1.564-.009-.483 1.487z"/><use xlink:href="#b" id="c" stroke="currentColor" transform="rotate(180)"/><use xlink:href="#d" id="e" stroke="currentColor" transform="rotate(45)"/><circle id="a" stroke-width=".222" stroke="currentColor" cx="0" cy="0" r="1"/></defs><g fill="none" color="#000" stroke="currentColor"><path stroke="#000" d="M53.9 374.7h9m552.1 0h-9"/><text transform="translate(45.6 378.6)" stroke="none" fill="#000" font-family="Arial" font-size="12" text-anchor="end"><tspan>200</tspan></text></g><g fill="none" color="#000" stroke="currentColor"><path stroke="#000" d="M53.9 311.3h9m552.1 0h-9"/><text transform="translate(45.6 315.2)" stroke="none" fill="#000" font-family="Arial" font-size="12" text-anchor="end"><tspan>250</tspan></text></g><g fill="none" color="#000" stroke="currentColor"><path stroke="#000" d="M53.9 248h9m552.1 0h-9"/><text transform="translate(45.6 251.9)" stroke="none" fill="#000" font-family="Arial" font-size="12" text-anchor="end"><tspan>300</tspan></text></g><g fill="none" color="#000" stroke="currentColor"><path stroke="#000" d="M53.9 184.6h9m552.1 0h-9"/><text transform="translate(45.6 188.5)" stroke="none" fill="#000" font-family="Arial" font-size="12" text-anchor="end"><tspan>350</tspan></text></g><g fill="none" color="#000" stroke="currentColor"><path stroke="#000" d="M53.9 121.2h9m552.1 0h-9"/><text transform="translate(45.6 125.1)" stroke="none" fill="#000" font-family="Arial" font-size="12" text-anchor="end"><tspan>400</tspan></text></g><g fill="none" color="#000" stroke="currentColor"><path stroke="#000" d="M53.9 57.8h9m552.1 0h-9"/><text transform="translate(45.6 61.7)" stroke="none" fill="#000" font-family="Arial" font-size="12" text-anchor="end"><tspan>450</tspan></text></g><g fill="none" color="#000" stroke="currentColor"><path stroke="#000" d="M53.9 436v-9m0-408.9v9"/><text transform="translate(53.9 457.9)" stroke="none" fill="#000" font-family="Arial" font-size="12" text-anchor="middle"><tspan>0</tspan></text></g><g fill="none" color="#000" stroke="currentColor"><path stroke="#000" d="M110.6 436v-9m0-408.9v9"/><text transform="translate(110.6 457.9)" stroke="none" fill="#000" font-family="Arial" font-size="12" text-anchor="middle"><tspan>10</tspan></text></g><g fill="none" color="#000" stroke="currentColor"><path stroke="#000" d="M167.3 436v-9m0-408.9v9"/><text transform="translate(167.3 457.9)" stroke="none" fill="#000" font-family="Arial" font-size="12" text-anchor="middle"><tspan>20</tspan></text></g><g fill="none" color="#000" stroke="currentColor"><path stroke="#000" d="M223.9 436v-9m0-408.9v9"/><text transform="translate(223.9 457.9)" stroke="none" fill="#000" font-family="Arial" font-size="12" text-anchor="middle"><tspan>30</tspan></text></g><g fill="none" color="#000" stroke="currentColor"><path stroke="#000" d="M280.6 436v-9m0-408.9v9"/><text transform="translate(280.6 457.9)" stroke="none" fill="#000" font-family="Arial" font-size="12" text-anchor="middle"><tspan>40</tspan></text></g><g fill="none" color="#000" stroke="currentColor"><path stroke="#000" d="M337.3 436v-9m0-408.9v9"/><text transform="translate(337.3 457.9)" stroke="none" fill="#000" font-family="Arial" font-size="12" text-anchor="middle"><tspan>50</tspan></text></g><g fill="none" color="#000" stroke="currentColor"><path stroke="#000" d="M394 436v-9m0-408.9v9"/><text transform="translate(394 457.9)" stroke="none" fill="#000" font-family="Arial" font-size="12" text-anchor="middle"><tspan>60</tspan></text></g><g fill="none" color="#000" stroke="currentColor"><path stroke="#000" d="M450.6 436v-9m0-408.9v9"/><text transform="translate(450.6 457.9)" stroke="none" fill="#000" font-family="Arial" font-size="12" text-anchor="middle"><tspan>70</tspan></text></g><g fill="none" color="#000" stroke="currentColor"><path stroke="#000" d="M507.3 436v-9m0-408.9v9"/><text transform="translate(507.3 457.9)" stroke="none" fill="#000" font-family="Arial" font-size="12" text-anchor="middle"><tspan>80</tspan></text></g><g fill="none" color="#000" stroke="currentColor"><path stroke="#000" d="M564 436v-9m0-408.9v9"/><text transform="translate(564 457.9)" stroke="none" fill="#000" font-family="Arial" font-size="12" text-anchor="middle"><tspan>90</tspan></text></g><path stroke="#000" d="M53.9 18.1V436H615V18.1H53.9z" fill="none" color="#000"/><text transform="translate(317.5 475.9)" stroke="none" fill="#000" font-family="Arial" font-size="12" text-anchor="end" color="#000"><tspan>raw</tspan></text><path stroke="#9400D3" d="M325.8 472H368M53.9 425.4l5.7-2.5 5.6 3.8 5.7-394.2 5.7 391.7h17l5.6-391.7 5.7 3.8 5.7-6.4 5.6 1.3 5.7-2.5 5.7 3.8 5.6 392.9 5.7-387.9 5.7-5 5.7-5.1 5.6 12.7 5.7-11.4 5.7 7.6 5.6 385.3 5.7 2.6 5.7 2.5 5.6-2.5 5.7-1.3 5.7 2.5 5.6-392.9 5.7-5.1 5.7 10.1 5.6 387.9 5.7-396.7 5.7 395.5 5.6 2.5 5.7-395.5 5.7 393 5.6 1.2 5.7-2.5 5.7-391.7 5.6 1.3 5.7 2.5 5.7 391.7 5.6-395.5 5.7 395.5h5.7l5.6-1.3 5.7-396.7 5.7 398 5.6-390.4 5.7 387.9 5.7-393h5.7l5.6-1.3 5.7 5.1 5.7 386.6 5.6 5.1 5.7-3.8 5.7-393 5.6 2.6 5.7-2.6 5.7 396.8 5.6-398 5.7-2.6h5.7l5.6 11.4 5.7-5 5.7 390.4 5.6-394.2 5.7 5 5.7 391.7 5.6 1.3 5.7 1.3 5.7-2.6 5.6-391.7 5.7 390.5L479 36.3l5.6 386.6 5.7-391.7 5.7 394.2 5.6-392.9 5.7 392.9L513 33.7l5.6-1.2 5.7 394.2 5.7-3.8 5.7-386.6 5.6-2.6 5.7-1.2 5.7 1.2 5.6 391.7L564 31.2l5.7 395.5 5.6-393 5.7-1.2 5.7 2.5 5.6-2.5 5.7 391.7 5.7-391.7 5.6 1.2 5.7 390.5" fill="none" color="#000"/><g fill="none" color="#000" stroke="currentColor"><path stroke="#000" d="M53.9 18.1V436H615V18.1H53.9z"/></g></svg>

<?xml version="1.0" encoding="utf-8"  standalone="no"?>
<svg 
 width="640" height="490"
 viewBox="0 0 640 490"
 xmlns="http://www.w3.org/2000/svg"
 xmlns:xlink="http://www.w3.org/1999/xlink"
>

<title>Gnuplot</title>
<desc>Produced by GNUPLOT 5.4 patchlevel 0 </desc>

<g id="gnuplot_canvas">

<rect x="0" y="0" width="640" height="490" fill="#ffffff"/>
<defs>

	<circle id='gpDot' r='0.5' stroke-width='0.5' stroke='currentColor'/>
	<path id='gpPt0' stroke-width='0.222' stroke='currentColor' d='M-1,0 h2 M0,-1 v2'/>
	<path id='gpPt1' stroke-width='0.222' stroke='currentColor' d='M-1,-1 L1,1 M1,-1 L-1,1'/>
	<path id='gpPt2' stroke-width='0.222' stroke='currentColor' d='M-1,0 L1,0 M0,-1 L0,1 M-1,-1 L1,1 M-1,1 L1,-1'/>
	<rect id='gpPt3' stroke-width='0.222' stroke='currentColor' x='-1' y='-1' width='2' height='2'/>
	<rect id='gpPt4' stroke-width='0.222' stroke='currentColor' fill='currentColor' x='-1' y='-1' width='2' height='2'/>
	<circle id='gpPt5' stroke-width='0.222' stroke='currentColor' cx='0' cy='0' r='1'/>
	<use xlink:href='#gpPt5' id='gpPt6' fill='currentColor' stroke='none'/>
	<path id='gpPt7' stroke-width='0.222' stroke='currentColor' d='M0,-1.33 L-1.33,0.67 L1.33,0.67 z'/>
	<use xlink:href='#gpPt7' id='gpPt8' fill='currentColor' stroke='none'/>
	<use xlink:href='#gpPt7' id='gpPt9' stroke='currentColor' transform='rotate(180)'/>
	<use xlink:href='#gpPt9' id='gpPt10' fill='currentColor' stroke='none'/>
	<use xlink:href='#gpPt3' id='gpPt11' stroke='currentColor' transform='rotate(45)'/>
	<use xlink:href='#gpPt11' id='gpPt12' fill='currentColor' stroke='none'/>
	<path id='gpPt13' stroke-width='0.222' stroke='currentColor' d='M0,1.330 L1.265,0.411 L0.782,-1.067 L-0.782,-1.076 L-1.265,0.411 z'/>
	<use xlink:href='#gpPt13' id='gpPt14' fill='currentColor' stroke='none'/>
	<filter id='textbox' filterUnits='objectBoundingBox' x='0' y='0' height='1' width='1'>
	  <feFlood flood-color='#FFFFFF' flood-opacity='1' result='bgnd'/>
	  <feComposite in='SourceGraphic' in2='bgnd' operator='atop'/>
	</filter>
	<filter id='greybox' filterUnits='objectBoundingBox' x='0' y='0' height='1' width='1'>
	  <feFlood flood-color='lightgrey' flood-opacity='1' result='grey'/>
	  <feComposite in='SourceGraphic' in2='grey' operator='atop'/>
	</filter>
</defs>
<g fill="none" color="#FFFFFF" stroke="black" stroke-width="1.00" stroke-linecap="butt" stroke-linejoin="miter">
</g>
<g fill="none" color="black" stroke="currentColor" stroke-width="1.00" stroke-linecap="butt" stroke-linejoin="miter">
	<path stroke='black'  d='M53.9,374.7 L62.9,374.7 M615.0,374.7 L606.0,374.7  '/>	<g transform="translate(45.6,378.6)" stroke="none" fill="black" font-family="Arial" font-size="12.00"  text-anchor="end">
		<text><tspan font-family="Arial" > 200</tspan></text>
	</g>
</g>
<g fill="none" color="black" stroke="currentColor" stroke-width="1.00" stroke-linecap="butt" stroke-linejoin="miter">
	<path stroke='black'  d='M53.9,311.3 L62.9,311.3 M615.0,311.3 L606.0,311.3  '/>	<g transform="translate(45.6,315.2)" stroke="none" fill="black" font-family="Arial" font-size="12.00"  text-anchor="end">
		<text><tspan font-family="Arial" > 250</tspan></text>
	</g>
</g>
<g fill="none" color="black" stroke="currentColor" stroke-width="1.00" stroke-linecap="butt" stroke-linejoin="miter">
	<path stroke='black'  d='M53.9,248.0 L62.9,248.0 M615.0,248.0 L606.0,248.0  '/>	<g transform="translate(45.6,251.9)" stroke="none" fill="black" font-family="Arial" font-size="12.00"  text-anchor="end">
		<text><tspan font-family="Arial" > 300</tspan></text>
	</g>
</g>
<g fill="none" color="black" stroke="currentColor" stroke-width="1.00" stroke-linecap="butt" stroke-linejoin="miter">
	<path stroke='black'  d='M53.9,184.6 L62.9,184.6 M615.0,184.6 L606.0,184.6  '/>	<g transform="translate(45.6,188.5)" stroke="none" fill="black" font-family="Arial" font-size="12.00"  text-anchor="end">
		<text><tspan font-family="Arial" > 350</tspan></text>
	</g>
</g>
<g fill="none" color="black" stroke="currentColor" stroke-width="1.00" stroke-linecap="butt" stroke-linejoin="miter">
	<path stroke='black'  d='M53.9,121.2 L62.9,121.2 M615.0,121.2 L606.0,121.2  '/>	<g transform="translate(45.6,125.1)" stroke="none" fill="black" font-family="Arial" font-size="12.00"  text-anchor="end">
		<text><tspan font-family="Arial" > 400</tspan></text>
	</g>
</g>
<g fill="none" color="black" stroke="currentColor" stroke-width="1.00" stroke-linecap="butt" stroke-linejoin="miter">
	<path stroke='black'  d='M53.9,57.8 L62.9,57.8 M615.0,57.8 L606.0,57.8  '/>	<g transform="translate(45.6,61.7)" stroke="none" fill="black" font-family="Arial" font-size="12.00"  text-anchor="end">
		<text><tspan font-family="Arial" > 450</tspan></text>
	</g>
</g>
<g fill="none" color="black" stroke="currentColor" stroke-width="1.00" stroke-linecap="butt" stroke-linejoin="miter">
	<path stroke='black'  d='M53.9,436.0 L53.9,427.0 M53.9,18.1 L53.9,27.1  '/>	<g transform="translate(53.9,457.9)" stroke="none" fill="black" font-family="Arial" font-size="12.00"  text-anchor="middle">
		<text><tspan font-family="Arial" > 0</tspan></text>
	</g>
</g>
<g fill="none" color="black" stroke="currentColor" stroke-width="1.00" stroke-linecap="butt" stroke-linejoin="miter">
	<path stroke='black'  d='M110.6,436.0 L110.6,427.0 M110.6,18.1 L110.6,27.1  '/>	<g transform="translate(110.6,457.9)" stroke="none" fill="black" font-family="Arial" font-size="12.00"  text-anchor="middle">
		<text><tspan font-family="Arial" > 10</tspan></text>
	</g>
</g>
<g fill="none" color="black" stroke="currentColor" stroke-width="1.00" stroke-linecap="butt" stroke-linejoin="miter">
	<path stroke='black'  d='M167.3,436.0 L167.3,427.0 M167.3,18.1 L167.3,27.1  '/>	<g transform="translate(167.3,457.9)" stroke="none" fill="black" font-family="Arial" font-size="12.00"  text-anchor="middle">
		<text><tspan font-family="Arial" > 20</tspan></text>
	</g>
</g>
<g fill="none" color="black" stroke="currentColor" stroke-width="1.00" stroke-linecap="butt" stroke-linejoin="miter">
	<path stroke='black'  d='M223.9,436.0 L223.9,427.0 M223.9,18.1 L223.9,27.1  '/>	<g transform="translate(223.9,457.9)" stroke="none" fill="black" font-family="Arial" font-size="12.00"  text-anchor="middle">
		<text><tspan font-family="Arial" > 30</tspan></text>
	</g>
</g>
<g fill="none" color="black" stroke="currentColor" stroke-width="1.00" stroke-linecap="butt" stroke-linejoin="miter">
	<path stroke='black'  d='M280.6,436.0 L280.6,427.0 M280.6,18.1 L280.6,27.1  '/>	<g transform="translate(280.6,457.9)" stroke="none" fill="black" font-family="Arial" font-size="12.00"  text-anchor="middle">
		<text><tspan font-family="Arial" > 40</tspan></text>
	</g>
</g>
<g fill="none" color="black" stroke="currentColor" stroke-width="1.00" stroke-linecap="butt" stroke-linejoin="miter">
	<path stroke='black'  d='M337.3,436.0 L337.3,427.0 M337.3,18.1 L337.3,27.1  '/>	<g transform="translate(337.3,457.9)" stroke="none" fill="black" font-family="Arial" font-size="12.00"  text-anchor="middle">
		<text><tspan font-family="Arial" > 50</tspan></text>
	</g>
</g>
<g fill="none" color="black" stroke="currentColor" stroke-width="1.00" stroke-linecap="butt" stroke-linejoin="miter">
	<path stroke='black'  d='M394.0,436.0 L394.0,427.0 M394.0,18.1 L394.0,27.1  '/>	<g transform="translate(394.0,457.9)" stroke="none" fill="black" font-family="Arial" font-size="12.00"  text-anchor="middle">
		<text><tspan font-family="Arial" > 60</tspan></text>
	</g>
</g>
<g fill="none" color="black" stroke="currentColor" stroke-width="1.00" stroke-linecap="butt" stroke-linejoin="miter">
	<path stroke='black'  d='M450.6,436.0 L450.6,427.0 M450.6,18.1 L450.6,27.1  '/>	<g transform="translate(450.6,457.9)" stroke="none" fill="black" font-family="Arial" font-size="12.00"  text-anchor="middle">
		<text><tspan font-family="Arial" > 70</tspan></text>
	</g>
</g>
<g fill="none" color="black" stroke="currentColor" stroke-width="1.00" stroke-linecap="butt" stroke-linejoin="miter">
	<path stroke='black'  d='M507.3,436.0 L507.3,427.0 M507.3,18.1 L507.3,27.1  '/>	<g transform="translate(507.3,457.9)" stroke="none" fill="black" font-family="Arial" font-size="12.00"  text-anchor="middle">
		<text><tspan font-family="Arial" > 80</tspan></text>
	</g>
</g>
<g fill="none" color="black" stroke="currentColor" stroke-width="1.00" stroke-linecap="butt" stroke-linejoin="miter">
	<path stroke='black'  d='M564.0,436.0 L564.0,427.0 M564.0,18.1 L564.0,27.1  '/>	<g transform="translate(564.0,457.9)" stroke="none" fill="black" font-family="Arial" font-size="12.00"  text-anchor="middle">
		<text><tspan font-family="Arial" > 90</tspan></text>
	</g>
</g>
<g fill="none" color="black" stroke="currentColor" stroke-width="1.00" stroke-linecap="butt" stroke-linejoin="miter">
</g>
<g fill="none" color="black" stroke="currentColor" stroke-width="1.00" stroke-linecap="butt" stroke-linejoin="miter">
	<path stroke='black'  d='M53.9,18.1 L53.9,436.0 L615.0,436.0 L615.0,18.1 L53.9,18.1 Z  '/></g>
<g fill="none" color="black" stroke="currentColor" stroke-width="1.00" stroke-linecap="butt" stroke-linejoin="miter">
</g>
	<g id="gnuplot_plot_1" ><title>raw</title>
<g fill="none" color="black" stroke="currentColor" stroke-width="1.00" stroke-linecap="butt" stroke-linejoin="miter">
	<g transform="translate(317.5,475.9)" stroke="none" fill="black" font-family="Arial" font-size="12.00"  text-anchor="end">
		<text><tspan font-family="Arial" >raw</tspan></text>
	</g>
</g>
<g fill="none" color="black" stroke="currentColor" stroke-width="1.00" stroke-linecap="butt" stroke-linejoin="miter">
	<path stroke='rgb(148,   0, 211)'  d='M325.8,472.0 L368.0,472.0 M53.9,425.4 L59.6,422.9 L65.2,426.7 L70.9,32.5 L76.6,424.2 L82.2,424.2
		L87.9,424.2 L93.6,424.2 L99.2,32.5 L104.9,36.3 L110.6,29.9 L116.2,31.2 L121.9,28.7 L127.6,32.5
		L133.2,425.4 L138.9,37.5 L144.6,32.5 L150.3,27.4 L155.9,40.1 L161.6,28.7 L167.3,36.3 L172.9,421.6
		L178.6,424.2 L184.3,426.7 L189.9,424.2 L195.6,422.9 L201.3,425.4 L206.9,32.5 L212.6,27.4 L218.3,37.5
		L223.9,425.4 L229.6,28.7 L235.3,424.2 L240.9,426.7 L246.6,31.2 L252.3,424.2 L257.9,425.4 L263.6,422.9
		L269.3,31.2 L274.9,32.5 L280.6,35.0 L286.3,426.7 L291.9,31.2 L297.6,426.7 L303.3,426.7 L308.9,425.4
		L314.6,28.7 L320.3,426.7 L325.9,36.3 L331.6,424.2 L337.3,31.2 L343.0,31.2 L348.6,29.9 L354.3,35.0
		L360.0,421.6 L365.6,426.7 L371.3,422.9 L377.0,29.9 L382.6,32.5 L388.3,29.9 L394.0,426.7 L399.6,28.7
		L405.3,26.1 L411.0,26.1 L416.6,37.5 L422.3,32.5 L428.0,422.9 L433.6,28.7 L439.3,33.7 L445.0,425.4
		L450.6,426.7 L456.3,428.0 L462.0,425.4 L467.6,33.7 L473.3,424.2 L479.0,36.3 L484.6,422.9 L490.3,31.2
		L496.0,425.4 L501.6,32.5 L507.3,425.4 L513.0,33.7 L518.6,32.5 L524.3,426.7 L530.0,422.9 L535.7,36.3
		L541.3,33.7 L547.0,32.5 L552.7,33.7 L558.3,425.4 L564.0,31.2 L569.7,426.7 L575.3,33.7 L581.0,32.5
		L586.7,35.0 L592.3,32.5 L598.0,424.2 L603.7,32.5 L609.3,33.7 L615.0,424.2  '/></g>
	</g>
<g fill="none" color="#FFFFFF" stroke="rgb(148,   0, 211)" stroke-width="2.00" stroke-linecap="butt" stroke-linejoin="miter">
</g>
<g fill="none" color="black" stroke="currentColor" stroke-width="2.00" stroke-linecap="butt" stroke-linejoin="miter">
</g>
<g fill="none" color="black" stroke="black" stroke-width="1.00" stroke-linecap="butt" stroke-linejoin="miter">
</g>
<g fill="none" color="black" stroke="currentColor" stroke-width="1.00" stroke-linecap="butt" stroke-linejoin="miter">
	<path stroke='black'  d='M53.9,18.1 L53.9,436.0 L615.0,436.0 L615.0,18.1 L53.9,18.1 Z  '/></g>
<g fill="none" color="black" stroke="currentColor" stroke-width="1.00" stroke-linecap="butt" stroke-linejoin="miter">
</g>
</g>
</svg>
